X:326
T:B326-  Nonesuch, of A la Mode de France
S:(1st/2)
Q:1/4=120
L:1/4
M:C|
K:D dorian
a|afga|fe/f/da|afga|f2fa|\
afga|fe/f/da|afga|f2de|\
ecde|fe/f/de|ecde|f2de|\
ecde|fe/f/de|fcde|f2d|]

